X:1
T:Joy in Heaven
T:Joy in Heaven
T:Alonzo Judson Abbey
T:Frances Jane (Fanny) Crosby, 1875, alt.
T:Public Domain Courtesy of the Cyber Hymnal™
T:Public Domain Courtesy of the Cyber Hymnal™
C:Alonzo Judson Abbey
Z:Public Domain
Z:Courtesy of the Cyber Hymnal™
%%score ( 1 2 ) ( 3 4 )
L:1/8
Q:1/4=112
M:2/2
K:D
V:1 treble 
V:2 treble 
V:3 bass 
V:4 bass 
V:1
 [FA]4 [Fd]4 | [Ec]6 z2 | [EG]4 [GB]4 | [FA]6 z2 | [FA]2 [DF][DF] [DF]2 [CE]2 | %5
w: 1.~Joy! joy!|joy!|Joy! joy!|joy!|Joy at the pearl- y|
w: 2.~Joy! joy!|joy!|Joy! joy!|joy!|Joy in the land of|
w: 3.~Joy! joy!|joy!|Joy! joy!|joy!|Joy where the saints a-|
 [DF]2 [EG]2 [FA]2 z2 | [FA]2 [DF][DF] [DF]2 [CE]2 | [DF]2 [EG]2 [FA]2 z2 | %8
w: gates of light,|Joy in the vales of|E- den bright;|
w: love and song,|Joy where the ho- ly|an- gels throng;|
w: dor- ing meet,|Cast- ing their crowns at|Je- sus’ feet;|
 [Bd]2 [Bd][Bd] [Bd]2 [Ac]2 | [GB]2 [FA]2 [EG]2 [DF]2 | [CE]2 [CE][CE] [CE]2 ([CA][DB]) | %11
w: Loud- er the chor- al|an- thems roll, They|blend with the song of~a *|
w: Strik- ing their tune- ful|harps of gold, Re-|ech- o the strain of *|
w: On- ward they sing the|joy- ful sound, The|dead is a- live, and~the *|
 [Ec]2 [DB]2 [CA]2 z2 ||"^Refrain" [CA]2 E2 ([Cc]2 A2) | e4 [Ec]2 z2 |: %14
w: new- born soul.|||
w: bliss un- told.|Glo- ry to *|God, glo-|
w: lost is found.|||
 [Ec]2 [Ec][Ec] [Ec]2 [Ec][Ec] | [Ed][Ed] [Ed]2 [Ec]2 z2 :| [Fd]2 [Ac][GB] [FA]2 [DF]2 | %17
w: |||
w: ry to God, Glo- ry to|God, our Re- deem-|er and King; Glo- ry|
w: |||
 [DF]4 [D^G]4 | [CA]4 z2 [CG]2 | [DF]2 [DF][EG] [FA]2 [FA][FA] | %20
w: |||
w: to Him|that once|was slain, An- oth- er has|
w: |||
 [GB]2 [GB][Ac] !fermata![Bd]3 [GB] | [GB] [FA]2 [DF] [EG]2 [CE]2 | D6 z2 |] %23
w: |||
w: come to the fount- ain|of life, A sin- ner|is|
w: |||
V:2
 x8 | x8 | x8 | x8 | x8 | x8 | x8 | x8 | x8 | x8 | x8 | x8 || x2 CC x4 | E2 EE x4 |: x8 | x8 :| %16
 x8 | x8 | x8 | x8 | x8 | x8 | D6 x2 |] %23
V:3
 [D,D]4 [D,A,]4 | [A,,A,]6 z2 | [A,,C]4 [A,,C]4 | [D,D]6 z2 | %4
 [D,D]2 [D,A,][D,A,] [D,A,]2 [A,,A,]2 | [D,A,]2 [D,A,]2 [D,D]2 z2 | %6
 [D,D]2 [D,A,][D,A,] [D,A,]2 [A,,A,]2 | [D,A,]2 [D,A,]2 [D,D]2 z2 | %8
 [B,D]2 [B,D][B,D] [B,D]2 [A,C]2 | [G,B,]2 [F,A,]2 [E,G,]2 [D,F,]2 | %10
 [E,A,]2 [E,A,][E,A,] [E,A,]2 ([E,A,][E,A,]) | [E,A,]2 [E,^G,]2 [A,,A,]2 z2 || %12
 [A,,A,]2 [A,,A,][A,,A,] [A,,A,]2 z2 | [A,C]2 [A,C][A,C] [A,C]2 z2 |: A,2 A,A, A,2 A,A, | %15
 [E,^G,][E,G,] [E,B,]2 A,2 z2 :| [D,A,]2 [D,D][D,D] [D,D]2 [D,A,]2 | [B,,B,]4 [E,B,]4 | %18
 [A,,A,]4 z2 [A,,A,]2 | [D,A,]2 [D,A,][D,A,] [D,D]2 [D,D][D,D] | %20
 [G,D]2 [G,D][G,D] !fermata![G,D]3 [G,D] | [D,D] [D,D]2 [D,A,] [A,,A,]2 [A,,G,]2 | [D,F,]6 z2 |] %23
V:4
 x8 | x8 | x8 | x8 | x8 | x8 | x8 | x8 | x8 | x8 | x8 | x8 || x8 | x8 |: A,2 A,A, A,2 A,A, | %15
 x4 A,2 x2 :| x8 | x8 | x8 | x8 | x8 | x8 | x8 |] %23

